!!!COM: Georges Bizet
!!!CNT: Francais
!!!TXO: Francais
!!!OTL: Le Matin
!!!LYR: '***' (sic.)
!!!ENC: Jacob Pegg
!!!YOR: Georges Bizet: Twenty Melodies. A Kalmus Classic Edition.
!!!YOR: Miami: Warner Bros. Publications,1990. ISBN 0-7692-4977-9
!!!ODT: 1873/ (?)
!!NB: Vocal melody and text only encoded.
!!NB: First instance of melodic material only encoded.
**kern	**silbe
*clef G2	*
*k[b-e-a-d-]	*
*M3/4	*
=1	=1
!! [A] mm. 1-10
2r	.
4r	.
=2	=2
4r	.
4r	.
8r	.
{8c	{Le
=3	=3
(16f	jour
16g)	|
(16a-	re-
16b-)	|
[4cc	-nait!
16cc]}	|}
16r	.
{8cc	{L'as
=4	=4
8cc	-tre
8cc	des
8cc	nuits
8cc	pa^-
8cc	-lit,
8cc	s'ef-
=5	=5
16cc	-fa-
16dd-	|
16b-	|
16cc	|
[4dd-	-ce
16dd-]}	|}
16r	.
{8b-	{Et
=6	=6
16b-	dis-
16cc	|
16a-	-pa-
16b-	|
[4cc	-rait
16cc]}	|}
16r	.
{8a-	{De-
=7	=7
(16a-	-vant
16b-)	|
(16g	l'au-
16a-)	|
8b-	-ro-
8g	-re
8g	qui
8g	le
=8	=8
16g	chas-
16a-	|
16g	|
16a-	|
[2f	-se;
=9	=9
2.f_	|
=10	=10
8f]}	|}
8r	.
4r	.
4r	.
!! [A] repeats in mm. 11-21
!! ---
!! [B] mm. 22 - 30
=22	=22
4r	.
4r	.
8r	.
{8e-	{Au
=23	=23
(16a-	fond
16b-)	|
(16cc	des
16dd-)	|
[4ee-	bois,
16ee-]}	|}
16r	.
{8ee-	{Le
=24	=24
8ee-	ros-
8ee-	-si-
8ee-	-gnol
8ee-	qui
8ee-	pleure
8ee-	et
=25	=25
(16ee-	chan-
16ff	|
16dd-	|
16ee-)	|
[4ff	-te
16ff]}	|}
16r	.
{8dd-	{Res-
=26	=26
(16dd-	-te
16ee-)	|
(16cc	sans
16dd-)	|
[4ee-	voix
16ee-]}	|}
16r	.
{8cc	{Ou-
=27	=27
(16cc	-bli-
16dd-)	|
(16b-	-ant
16cc)	|
8dd-	sa
8g	chan-
8g	-son
8g	char-
=28	=28
(16g	-man-
16a-	|
16g	|
16a-)	|
[2f	-te;
=29	=29
2.f_	|
=30	=30
8f]}	|}
8r	.
4r	.
4r	.
!! [B] repeats in mm. 32-40, 
!! modified enough only to accomodate a modulation
!! ___
!! [C] mm. 42-58
=42	=42
*k[b-]	*
4r	.
4r	.
{4c	{O
=43	=43
2cc	douce
4cc	a-
=44	=44
2.dd	-mi-
=45	=45
2cc}	-e.}
4r	.
=46	=46
4r	.
4r	.
{4c	{Voi-
=47	=47
2cc	-ci
4cc	le
=48	=48
(16cc	jour!
[8.a)	|
4a_	|
8a]}	|}
8r	.
=49	=49
{4a-	{L'heure
8.ee-	at-
16dd-	-ten-
[4ee-	-dri-
=50	=50
4ee-_	|
8ee-]}	-e}
8r	.
{4cc	{Est
=51	=51
8cc	de
8an	re-
[2an	-tour!
=52	=52
2an]}	|}
4r	.
=53	=53
{4a	{Viens
8.een	c'est
16ddn	la
[4een	vi-
=54	=54
4een_	|
8een]}	-e!}
8r	.
{4ccn	{Viens!
=55	=55
8cc	c'est
8a	l'a-
[2ff	-mour!
=56	=56
2.ff_	|
=57	=57
2.ff_	|
=58	=58
4ff]}	|}
4r	.
4r	.
!! entire form - AABBC - repeats.
*-	*-
